public/images/tarif.svg

<svg xmlns:xlink="http://www.w3.org/1999/xlink" xmlns="http://www.w3.org/2000/svg" width="36" height="33" viewBox="0 0 36 33" fill="none">
<path d="M24.0937 16.6694C23.4004 16.6694 22.8384 17.1846 22.8384 17.8202C22.8384 18.4558 23.4004 18.971 24.0937 18.971H28.6584C29.3517 18.971 29.9137 18.4558 29.9137 17.8202C29.9137 17.1846 29.3517 16.6694 28.6584 16.6694H24.0937Z" fill="#8D9AC5"/>
<path fill-rule="evenodd" clip-rule="evenodd" d="M30.8072 3.26443C30.9368 3.94565 30.9681 4.7552 30.9769 5.6814C31.1221 5.75083 31.2645 5.82474 31.4046 5.9034C32.6995 6.6309 33.7883 7.62904 34.5818 8.81621C35.4555 10.1233 35.7732 11.6382 35.9045 13.5636C36 14.9644 36 16.6681 36 18.7606V18.8039C36 20.0039 36 21.0728 35.9828 22.0241C35.9292 24.9823 35.7203 27.0739 34.5818 28.7771C33.7883 29.9642 32.6995 30.9624 31.4046 31.6899C30.168 32.3846 28.7652 32.6942 27.0521 32.8435C25.3714 32.99 23.2676 32.99 20.584 32.99H15.4309C12.7474 32.99 10.6435 32.99 8.96279 32.8435C7.24965 32.6942 5.8469 32.3846 4.61031 31.6899C3.31536 30.9624 2.2266 29.9642 1.43305 28.7771C0.675271 27.6434 0.337543 26.3574 0.174656 24.7868C0.0148511 23.246 0.0148594 21.3173 0.01487 18.857L0.0150034 18.0503C-0.00705165 17.2921 -0.000278513 16.4444 0.00702446 15.5304C0.0108738 15.0486 0.0148702 14.5484 0.0148702 14.0332L0.01487 13.9667C0.0148569 11.3394 0.0148466 9.27742 0.200358 7.64091C0.389567 5.97177 0.783026 4.61035 1.6704 3.44302C2.20652 2.73774 2.85695 2.11555 3.59895 1.6003C4.83468 0.742206 6.28074 0.360742 8.04421 0.178134C9.76468 -2.16985e-05 11.9291 -9.16378e-06 14.6708 6.65853e-06L23.8229 2.26853e-06C25.1594 -5.09619e-05 26.2923 -9.60771e-05 27.1954 0.115958C28.1601 0.239914 29.0454 0.515667 29.7537 1.19267C30.3685 1.78032 30.6598 2.48926 30.8072 3.26443ZM23.7346 2.30163C25.1835 2.30163 26.1386 2.30429 26.8469 2.3953C27.5136 2.48097 27.7729 2.62446 27.9419 2.78593C28.0981 2.93527 28.2391 3.16072 28.3339 3.65968C28.3974 3.9933 28.432 4.40107 28.4503 4.92271C27.7595 4.80679 27.0139 4.73536 26.2018 4.68942C24.6787 4.60326 22.8277 4.60326 20.5568 4.60326H15.431C12.7473 4.60325 10.6435 4.60324 8.96279 4.74975C7.24965 4.89908 5.8469 5.2087 4.61031 5.9034C3.9437 6.27791 3.33172 6.72413 2.78653 7.23093C2.97024 6.1149 3.27109 5.36287 3.73015 4.75898C4.11775 4.24909 4.58541 3.80265 5.11482 3.43503C5.84746 2.92628 6.78952 2.62432 8.32599 2.46522C9.88918 2.30335 11.9118 2.30163 14.7488 2.30163H23.7346ZM5.92209 7.86586C6.69791 7.43001 7.67106 7.17435 9.20043 7.04104C10.7485 6.9061 12.7331 6.90489 15.4968 6.90489H20.518C22.8355 6.90489 24.6101 6.90538 26.0472 6.98668C27.4829 7.06789 28.4866 7.22622 29.2779 7.5017C29.5742 7.60488 29.8424 7.72519 30.0928 7.86586C31.0499 8.40358 31.8547 9.14133 32.4412 10.0188C32.854 10.6363 33.117 11.3869 33.2746 12.4846H24.0937C20.8794 12.4846 18.2737 14.8734 18.2737 17.8202C18.2737 20.767 20.8794 23.1558 24.0937 23.1558H33.4381C33.3414 25.3965 33.0747 26.6268 32.4412 27.5745C31.8547 28.4519 31.0499 29.1897 30.0928 29.7274C29.317 30.1632 28.3438 30.4189 26.8144 30.5522C25.2664 30.6872 23.2817 30.6884 20.518 30.6884H15.4968C12.7331 30.6884 10.7485 30.6872 9.20043 30.5522C7.67106 30.4189 6.69791 30.1632 5.92209 29.7274C4.96495 29.1897 4.16022 28.4519 3.57368 27.5745C3.09826 26.8632 2.81939 25.9711 2.67397 24.569C2.52678 23.1498 2.52546 21.3303 2.52546 18.7966C2.52546 16.2629 2.52678 14.4435 2.67397 13.0243C2.81939 11.6222 3.09826 10.73 3.57368 10.0188C4.16022 9.14133 4.96495 8.40358 5.92209 7.86586ZM20.7843 17.8202C20.7843 16.1446 22.266 14.7862 24.0937 14.7862H33.4519C33.4891 15.897 33.4894 17.2076 33.4894 18.7966C33.4894 19.5392 33.4894 20.2221 33.4855 20.8542H24.0937C22.266 20.8542 20.7843 19.4958 20.7843 17.8202Z" fill="#8D9AC5"/>
</svg>

<svg xmlns="http://www.w3.org/2000/svg" width="36" height="33" fill="none"><path fill="#8D9AC5" d="M24.094 16.67c-.694 0-1.256.515-1.256 1.15 0 .636.562 1.151 1.256 1.151h4.564c.694 0 1.256-.515 1.256-1.15 0-.636-.562-1.152-1.256-1.152z"/><path fill="#8D9AC5" fill-rule="evenodd" d="M30.807 3.264c.13.682.161 1.491.17 2.417q.218.105.428.222a9.3 9.3 0 0 1 3.177 2.913c.874 1.307 1.191 2.822 1.322 4.748.096 1.4.096 3.104.096 5.197v.043c0 1.2 0 2.269-.017 3.22-.054 2.958-.263 5.05-1.401 6.753a9.3 9.3 0 0 1-3.177 2.913c-1.237.695-2.64 1.004-4.353 1.153-1.68.147-3.784.147-6.468.147h-5.153c-2.684 0-4.787 0-6.468-.147-1.713-.149-3.116-.458-4.353-1.153a9.3 9.3 0 0 1-3.177-2.913c-.758-1.134-1.095-2.42-1.258-3.99-.16-1.541-.16-3.47-.16-5.93v-.807a71 71 0 0 1-.008-2.52q.007-.723.008-1.497v-.066c0-2.628 0-4.69.185-6.326.19-1.67.583-3.03 1.47-4.198A8.5 8.5 0 0 1 3.6 1.6C4.835.742 6.28.36 8.044.178 9.764 0 11.93 0 14.671 0h9.152c1.336 0 2.47 0 3.372.116.965.124 1.85.4 2.559 1.077.614.587.906 1.296 1.053 2.071m-7.072-.962c1.448 0 2.404.002 3.112.093.667.086.926.23 1.095.39.156.15.297.376.392.875.063.333.098.741.116 1.263a21 21 0 0 0-2.248-.234c-1.523-.086-3.374-.086-5.645-.086H15.43c-2.684 0-4.787 0-6.468.147-1.713.15-3.116.459-4.353 1.153a9.5 9.5 0 0 0-1.823 1.328c.183-1.116.484-1.868.943-2.472a6.1 6.1 0 0 1 1.385-1.324c.732-.509 1.675-.81 3.211-.97 1.563-.162 3.586-.163 6.423-.163zM5.922 7.866c.776-.436 1.75-.692 3.278-.825 1.549-.135 3.533-.136 6.297-.136h5.021c2.317 0 4.092 0 5.53.082 1.435.08 2.439.24 3.23.515.296.103.564.223.815.364a6.85 6.85 0 0 1 2.348 2.153c.413.617.676 1.368.834 2.466h-9.181c-3.215 0-5.82 2.388-5.82 5.335s2.605 5.336 5.82 5.336h9.344c-.097 2.24-.363 3.47-.997 4.419a6.85 6.85 0 0 1-2.348 2.152c-.776.436-1.75.692-3.279.825-1.548.135-3.532.136-6.296.136h-5.021c-2.764 0-4.748 0-6.297-.136-1.529-.133-2.502-.389-3.278-.825a6.85 6.85 0 0 1-2.348-2.152c-.476-.712-.755-1.604-.9-3.006-.147-1.42-.149-3.239-.149-5.772s.002-4.353.149-5.773c.145-1.402.424-2.294.9-3.005a6.85 6.85 0 0 1 2.348-2.153m14.862 9.954c0-1.675 1.482-3.034 3.31-3.034h9.358c.037 1.111.037 2.422.037 4.01 0 .743 0 1.426-.003 2.058h-9.392c-1.828 0-3.31-1.358-3.31-3.034" clip-rule="evenodd"/></svg>
